X:1
T:The Winnipeg Whore
M:4/4
L:1/8
K:C
 F2 F2 E2 DC| FF F2E-F G2| F2 F2 E2 DC| DD D2 C4| D2 D2 C2 CC| DD D2 EF G2|\
 FF F2 E2 DC| DD E2 F4|
